svg/fluentui-system-icons/ic_fluent_error_circle_settings_16_filled.svg

<svg width="16" height="16" viewBox="0 0 16 16" fill="none" xmlns="http://www.w3.org/2000/svg">
<path d="M14 8C14 4.68629 11.3137 2 8 2C4.68629 2 2 4.68629 2 8C2 11.3137 4.68629 14 8 14C8.08516 14 8.1699 13.9982 8.25419 13.9947C8.08956 13.527 8 13.024 8 12.5C8 12.1533 8.03922 11.8157 8.11345 11.4915C8.07645 11.4971 8.03857 11.5 8 11.5C7.58579 11.5 7.25 11.1642 7.25 10.75C7.25 10.3358 7.58579 10 8 10C8.23638 10 8.44722 10.1094 8.58469 10.2802C9.35836 8.91853 10.8219 8 12.5 8C13.024 8 13.527 8.08956 13.9947 8.25419C13.9982 8.1699 14 8.08516 14 8ZM7.50806 4.91012C7.55039 4.67688 7.75454 4.5 8 4.5C8.24546 4.5 8.44961 4.67688 8.49194 4.91012L8.5 5V8.5L8.49194 8.58988C8.44961 8.82312 8.24546 9 8 9C7.75454 9 7.55039 8.82312 7.50806 8.58988L7.5 8.5V5L7.50806 4.91012ZM9.05062 12.1332C10.1084 11.8439 10.736 10.7569 10.4576 9.69622L10.449 9.66359C10.6954 9.48515 10.9659 9.33802 11.2547 9.22803C11.988 9.85263 13.0689 9.86175 13.8124 9.25438C14.1167 9.37753 14.3997 9.54223 14.6544 9.74142C14.5006 10.6885 15.0488 11.6195 15.9558 11.9423C15.9849 12.1239 16 12.3102 16 12.5C16 12.6208 15.9939 12.7402 15.9819 12.8579L15.9493 12.8668C14.8915 13.1561 14.2639 14.2431 14.5423 15.3038L14.5509 15.3365C14.3045 15.5149 14.034 15.662 13.7452 15.772C13.012 15.1474 11.931 15.1382 11.1875 15.7456C10.8833 15.6224 10.6002 15.4577 10.3455 15.2585C10.4993 14.3115 9.95116 13.3805 9.0442 13.0577C9.01511 12.8761 9 12.6898 9 12.5C9 12.3792 9.00612 12.2597 9.01808 12.1421L9.05062 12.1332ZM13.25 12.5C13.25 12.0858 12.9142 11.75 12.5 11.75C12.0858 11.75 11.75 12.0858 11.75 12.5C11.75 12.9142 12.0858 13.25 12.5 13.25C12.9142 13.25 13.25 12.9142 13.25 12.5Z" fill="#212121"/>
</svg>

<svg xmlns="http://www.w3.org/2000/svg" width="16" height="16"><path d="M14 8a6 6 0 1 0-5.746 5.995 4.493 4.493 0 0 1-.14-2.503.75.75 0 1 1 .471-1.211 4.498 4.498 0 0 1 5.41-2.027C13.998 8.17 14 8.085 14 8ZM7.508 4.91a.5.5 0 0 1 .984 0L8.5 5v3.5l-.008.09a.5.5 0 0 1-.984 0L7.5 8.5V5l.008-.09Zm1.543 7.223a2 2 0 0 0 1.407-2.437l-.009-.032c.246-.179.517-.326.806-.436a2.001 2.001 0 0 0 2.557.026c.305.124.588.288.842.487a2.001 2.001 0 0 0 1.302 2.201 3.523 3.523 0 0 1 .026.916l-.033.009a2 2 0 0 0-1.407 2.437l.009.032a3.496 3.496 0 0 1-.806.436 2.001 2.001 0 0 0-2.557-.026 3.5 3.5 0 0 1-.843-.488 2.001 2.001 0 0 0-1.3-2.2 3.524 3.524 0 0 1-.027-.916l.033-.009Zm4.199.367a.75.75 0 1 0-1.5 0 .75.75 0 0 0 1.5 0Z"/></svg>
